X:1
T:Robin Hood and Little John
M:6/8
L:1/8
K:G
 F| G2 E F2 D| EED B,2 B,| GGG FDD| E3 z2 F| GGG F2 G| EDD B,2 D| EEE DDB,|\
 A,3|

